.local/share/icons/Gruvbox-Plus-Dark/panel/16/yate-tray-notification.svg

<svg xmlns="http://www.w3.org/2000/svg" width="16" height="16" version="1.1">
 <defs>
  <style id="current-color-scheme" type="text/css">
   .ColorScheme-Text { color:#ebdbb2; } .ColorScheme-Highlight { color:#458588; }
  </style>
 </defs>
 <path style="fill:currentColor;opacity:0.3" class="ColorScheme-Text" d="M 7.6933594 1.0019531 C 5.8259224 1.0327331 4.351985 1.7208388 2.984375 3.078125 C 1.506196 4.545147 0.97465075 5.8921706 0.98046875 8.1484375 C 0.982791 9.0484754 1.0728341 9.7540578 1.2441406 10.363281 L 1.9746094 8.9511719 A 1.0001 1.0001 0 0 0 1.9765625 8.9492188 C 2.2470236 8.428466 2.778017 8.0431778 3.4003906 8.0058594 C 3.4538321 8.002132 3.506971 7.9985358 3.5605469 8 A 1.0001 1.0001 0 0 1 3.5839844 8.0019531 C 4.213883 8.0337864 4.7531239 8.4240779 5.0253906 8.9511719 L 6.40625 11.628906 L 7.7910156 14.308594 A 1.0001 1.0001 0 0 0 7.7910156 14.310547 C 7.9014245 14.525164 7.9505473 14.753444 7.9726562 14.982422 C 8.1213159 14.982178 8.2216004 14.996203 8.4121094 14.988281 C 10.391776 14.905961 11.733042 14.349918 12.998047 13.089844 C 14.272996 11.819865 14.909581 10.292888 15.033203 8.2109375 C 15.254517 4.4836986 13.262554 1.8597651 9.703125 1.1894531 C 8.982395 1.0537251 8.3158384 0.99169304 7.6933594 1.0019531 z M 6.5351562 3 C 6.8008523 3 7.2765905 3.5671789 7.6328125 4.3066406 C 8.0210405 5.1125546 8.0170874 5.3566044 7.6152344 5.6210938 C 7.0840134 5.970732 6.6464844 6.4440725 6.6464844 6.6679688 C 6.6464844 6.7835767 6.9823101 7.2302663 7.3925781 7.6601562 C 8.0631911 8.3628439 8.1724536 8.5497121 8.4785156 9.5195312 C 8.6696436 10.125156 8.9103158 10.655226 9.0273438 10.728516 C 9.1922787 10.831808 9.3981918 10.771055 10.009766 10.433594 L 10.255859 10.296875 C 10.74059 10.029407 10.793981 9.9319075 11.126953 10.433594 C 11.316561 10.668172 11.611263 11.154173 11.78125 11.513672 C 12.149859 12.29322 12.085838 12.471732 11.332031 12.773438 C 9.6510275 13.44625 8.6971461 12.724017 6.7050781 9.2753906 C 5.0356761 6.3853563 4.7122131 5.2880676 5.2207031 4.2539062 C 5.4865161 3.7132955 6.2345442 3 6.5351562 3 z"/>
 <path style="fill:currentColor" class="ColorScheme-Text" d="m 3.5335033,8.9999997 a 0.73531259,0.82233521 0 0 0 -0.072266,0.002 0.73531259,0.82233521 0 0 0 -0.5976563,0.408203 L 1.4788158,12.087891 0.09795637,14.767578 A 0.73531259,0.82233521 0 0 0 0.73467517,16 H 3.5003002 6.2659252 A 0.73531259,0.82233521 0 0 0 6.902644,14.767578 L 5.5178783,12.087891 4.137019,9.4101557 A 0.73531259,0.82233521 0 0 0 3.5335033,8.9999997 Z m -0.5332031,1 h 1 V 13 h -1 z m 0,4.0000003 h 1 v 1 h -1 z"/>
</svg>

<svg width="16" height="16" version="1.1" xmlns="http://www.w3.org/2000/svg">
  <defs>
    <style id="current-color-scheme" type="text/css">.ColorScheme-Text { color:#ebdbb2; } .ColorScheme-Highlight { color:#458588; } .ColorScheme-NeutralText { color:#fe8019; } .ColorScheme-PositiveText { color:#689d6a; } .ColorScheme-NegativeText { color:#fb4934; }</style>
  </defs>
  <path class="ColorScheme-Text" d="m7.693 1.002c-1.867 0.03078-3.341 0.7189-4.709 2.076-1.478 1.467-2.01 2.814-2.004 5.07 0.002322 0.9 0.09237 1.606 0.2637 2.215l0.7305-1.412a1 1 0 0 0 0.001953-0.001953c0.2705-0.5208 0.8015-0.906 1.424-0.9434 0.05344-0.003727 0.1066-0.007324 0.1602-0.005859a1 1 0 0 1 0.02344 0.001953c0.6299 0.03183 1.169 0.4221 1.441 0.9492l1.381 2.678 1.385 2.68a1 1 0 0 0 0 0.001953c0.1104 0.2146 0.1595 0.4429 0.1816 0.6719 0.1487-2.44e-4 0.2489 0.01378 0.4395 0.005859 1.98-0.08232 3.321-0.6384 4.586-1.898 1.275-1.27 1.912-2.797 2.035-4.879 0.2213-3.727-1.771-6.351-5.33-7.021-0.7207-0.1357-1.387-0.1978-2.01-0.1875zm-1.158 1.998c0.2657 0 0.7414 0.5672 1.098 1.307 0.3882 0.8059 0.3843 1.05-0.01758 1.314-0.5312 0.3496-0.9688 0.823-0.9688 1.047 0 0.1156 0.3358 0.5623 0.7461 0.9922 0.6706 0.7027 0.7799 0.8896 1.086 1.859 0.1911 0.6056 0.4318 1.136 0.5488 1.209 0.1649 0.1033 0.3708 0.04254 0.9824-0.2949l0.2461-0.1367c0.4847-0.2675 0.5381-0.365 0.8711 0.1367 0.1896 0.2346 0.4843 0.7206 0.6543 1.08 0.3686 0.7795 0.3046 0.9581-0.4492 1.26-1.681 0.6728-2.635-0.04942-4.627-3.498-1.669-2.89-1.993-3.987-1.484-5.021 0.2658-0.5406 1.014-1.254 1.314-1.254z" fill="currentColor" opacity=".3"/>
  <path class="ColorScheme-Text" d="m3.534 9a0.7353 0.8223 0 0 0-0.07227 2e-3 0.7353 0.8223 0 0 0-0.5977 0.4082l-1.385 2.678-1.381 2.68a0.7353 0.8223 0 0 0 0.6367 1.232h5.531a0.7353 0.8223 0 0 0 0.6367-1.232l-1.385-2.68-1.381-2.678a0.7353 0.8223 0 0 0-0.6035-0.4102zm-0.5332 1h1v3h-1zm0 4h1v1h-1z" fill="currentColor"/>
</svg>
